icons/1_Primary/ANY.RUN.svg

<svg width="1024" height="1024" fill="none" xmlns="http://www.w3.org/2000/svg"><g clip-path="url(#a)"><path d="M512 1024c282.77 0 512-229.23 512-512S794.77 0 512 0 0 229.23 0 512s229.23 512 512 512Z" fill="#96DFD3"/><path d="M420.68 257.481c-7.79 2.37-15.24 8.639-18.46 15.919-3.05 6.6-3.22 15.071-3.22 185.271 0 98.22.51 178.149 1.35 177.809.68-.34 8.64-4.74 17.61-9.82l16.43-9.31 1.02-320.91 143.95 83.15c79.25 45.72 144.96 83.66 146.15 84.34 1.35.85-3.05 4.06-12.36 9.31-7.96 4.4-14.39 8.64-14.39 9.48 0 .68 7.62 5.76 17.1 11.01l17.1 9.65 7.45-3.89c20.49-11.01 26.25-17.609 27.44-30.819.85-11.351-1.69-19.651-7.79-25.231-5.93-5.59-315.33-184.08-322.61-186.11-6.27-1.86-10.5-1.69-16.77.17v-.019Zm-85.17 48.78c-8.47 4.06-15.58 12.189-16.94 19.479-.51 3.05-.68 88.91-.51 191.02l.51 185.61 4.74 6.1c6.43 8.47 13.72 12.02 24.89 12.02 9.15 0 10.67-.849 163.08-88.74 84.51-48.77 153.43-89.41 153.09-90.26-.85-2.88-32.18-19.98-34.89-19.31-1.52.51-64.01 36.241-139.03 79.591l-136.33 78.75-.51-84.671c-.17-46.57-.17-122.27 0-168.33l.51-83.66 13.04 7.621c7.11 4.23 13.89 7.62 14.9 7.62 1.01 0 1.69-7.281 1.69-19.981v-19.979l-12.87-7.451c-15.24-8.81-25.06-10.16-35.39-5.42l.02-.009Zm114.3 72.819v19.98l138.87 80.1 138.7 80.27-291.96 168.5-.51-16.77c-.17-9.14-1.02-16.759-1.52-16.759s-8.47 4.399-17.78 9.649l-16.6 9.651v15.239c0 12.02.68 16.77 3.56 22.69 6.1 12.53 21.17 19.141 34.55 15.24 4.06-1.19 78.07-43.009 164.27-92.8 117.53-67.739 158.17-91.959 161.39-96.359 3.39-4.4 4.57-8.13 5.08-16.26.68-11.351-1.35-17.441-8.47-24.05-4.23-4.06-305.33-178.321-308.04-178.321-.85 0-1.52 8.47-1.52 19.98l-.02.02Z" fill="#fff"/></g><defs><clipPath id="a"><path fill="#fff" d="M0 0h1024v1024H0z"/></clipPath></defs></svg>

<svg width="1024" height="1024" viewBox="0 0 1024 1024" fill="none" xmlns="http://www.w3.org/2000/svg">
<g clip-path="url(#clip0_2_1482)">
<path d="M512 1024C794.77 1024 1024 794.77 1024 512C1024 229.23 794.77 0 512 0C229.23 0 0 229.23 0 512C0 794.77 229.23 1024 512 1024Z" fill="#96DFD3"/>
<path d="M420.68 257.481C412.89 259.851 405.44 266.12 402.22 273.4C399.17 280 399 288.471 399 458.671C399 556.891 399.51 636.82 400.35 636.48C401.03 636.14 408.99 631.74 417.96 626.66L434.39 617.35L435.41 296.44L579.36 379.59C658.61 425.31 724.32 463.25 725.51 463.93C726.86 464.78 722.46 467.99 713.15 473.24C705.19 477.64 698.76 481.88 698.76 482.72C698.76 483.4 706.38 488.48 715.86 493.73L732.96 503.38L740.41 499.49C760.9 488.48 766.66 481.881 767.85 468.671C768.7 457.32 766.16 449.02 760.06 443.44C754.13 437.85 444.73 259.36 437.45 257.33C431.18 255.47 426.95 255.64 420.68 257.5V257.481ZM335.51 306.261C327.04 310.321 319.93 318.45 318.57 325.74C318.06 328.79 317.89 414.65 318.06 516.76L318.57 702.37L323.31 708.47C329.74 716.94 337.03 720.49 348.2 720.49C357.35 720.49 358.87 719.641 511.28 631.75C595.79 582.98 664.71 542.34 664.37 541.49C663.52 538.61 632.19 521.51 629.48 522.18C627.96 522.69 565.47 558.421 490.45 601.771L354.12 680.521L353.61 595.85C353.44 549.28 353.44 473.58 353.61 427.52L354.12 343.86L367.16 351.481C374.27 355.711 381.05 359.101 382.06 359.101C383.07 359.101 383.75 351.82 383.75 339.12V319.141L370.88 311.69C355.64 302.88 345.82 301.53 335.49 306.27L335.51 306.261ZM449.81 379.08V399.06L588.68 479.16L727.38 559.43L435.42 727.93L434.91 711.16C434.74 702.02 433.89 694.401 433.39 694.401C432.89 694.401 424.92 698.8 415.61 704.05L399.01 713.701V728.94C399.01 740.96 399.69 745.71 402.57 751.63C408.67 764.16 423.74 770.771 437.12 766.87C441.18 765.68 515.19 723.861 601.39 674.07C718.92 606.331 759.56 582.111 762.78 577.711C766.17 573.311 767.35 569.581 767.86 561.451C768.54 550.1 766.51 544.01 759.39 537.401C755.16 533.341 454.06 359.08 451.35 359.08C450.5 359.08 449.83 367.55 449.83 379.06L449.81 379.08Z" fill="white"/>
</g>
<defs>
<clipPath id="clip0_2_1482">
<rect width="1024" height="1024" fill="white"/>
</clipPath>
</defs>
</svg>
